www/assets/icons/document_scanner.svg

<svg xmlns="http://www.w3.org/2000/svg" width="24" height="24" viewBox="0 0 24 24" fill='currentColor'><path d="M7 3H4v3H2V1h5zm15 3V1h-5v2h3v3zM7 21H4v-3H2v5h5zm13-3v3h-3v2h5v-5zm-1 0c0 1.1-.9 2-2 2H7c-1.1 0-2-.9-2-2V6c0-1.1.9-2 2-2h10c1.1 0 2 .9 2 2zM15 8H9v2h6zm0 3H9v2h6zm0 3H9v2h6z"/></svg>

<svg width="24" height="24" viewBox="0 0 24 24" xmlns="http://www.w3.org/2000/svg" fill='currentColor'><path d="M7 3H4V6H2V1H7V3ZM22 6V1H17V3H20V6H22ZM7 21H4V18H2V23H7V21ZM20 18V21H17V23H22V18H20ZM19 18C19 19.1 18.1 20 17 20H7C5.9 20 5 19.1 5 18V6C5 4.9 5.9 4 7 4H17C18.1 4 19 4.9 19 6V18ZM15 8H9V10H15V8ZM15 11H9V13H15V11ZM15 14H9V16H15V14Z"/></svg>
